X:1
T:Title
%%score { 1 | 2 }
L:1/8
M:3/4
K:F
V:1 treble nm="Grand Piano"
V:2 bass 
V:1
 z2 z2[Q:1/4=92] FA | c3 A cA | G2 F2 FA | c3 A GF |[M:2/4] [EG]4 |[M:1/4] FG | %6
[M:3/4] A3 A A[_Ec] |[M:7/8] [_Ec]2 [DB]3 [DG][DG] |[M:3/4] F3 C [FA][EG] |[M:2/4] F4 |[M:1/4] cc | %11
[M:3/4] c3 A GF | A2 F2 cc | c3 A cA |[M:2/4] [EG]4 |[M:1/4] FG |[M:3/4] A3 A A[_Ec] | %17
[M:7/8] [_Ec]2 [DB]3 [DG][DG] |[M:3/4] [A,CF]3 [A,C] [CFA][B,EG] |[M:2/4] [A,F]4 |] %20
V:2
 z2 z2 [F,A,][F,CF] | [F,A,F]3 [F,CF] [F,A,F][F,CF] | [C,B,C]2 [F,A,C]2 [F,A,][F,CF] | %3
 [F,A,F]3 [F,CF] [E,C][D,=B,D] |[M:2/4] [C,C]4 |[M:1/4] [F,A,C][F,B,C] | %6
[M:3/4] [F,CF]3 [F,CF] [F,CF][A,,F,] |[M:7/8] [B,,F,]2 [B,,F,]3 [B,,B,][B,,B,] | %8
[M:3/4] [C,A,C]3 [C,A,] [C,C][C,B,] |[M:2/4] [F,A,]4 |[M:1/4] [F,A,F][F,A,F] | %11
[M:3/4] [F,A,F]3 [F,CF] [F,B,F][F,A,] | [F,CF]2 [F,A,]2 [F,A,F][F,A,F] | %13
 [F,A,F]3 [F,CF] [F,A,F][F,CF] |[M:2/4] [C,C]4 |[M:1/4] [F,A,C][F,B,C] | %16
[M:3/4] [F,CF]3 [F,CF] [F,CF][A,,F,] |[M:7/8] [B,,F,]2 [B,,F,]3 [B,,B,][B,,B,] | %18
[M:3/4] C,3 C, C,C, |[M:2/4] F,4 |] %20

